X:1
T:Of  joys and pleasing pains - Wilbye
T:#
%%score 1 2 { 3 | 4 } 5
L:1/8
Q:1/4=108
M:4/4
K:Bb
V:1 treble nm="Soprano I"
V:2 treble nm="Soprano II"
V:3 treble nm="Alto I" snm="A"
V:4 treble 
V:5 treble-8 nm="Tenor" snm="T"
V:1
"^1st part of a 2-part madrigal, the 2nd part being \"My throat is sore\"""^Of joys and pleasing pains""^John Wilbye\n (1574-1638)"!f! G8 | %1
w: Of|
 d6 d2 | d4 d4 | d8 | z2 d2 f3 f |[M:4/4] f2 e2 d2 c2 | A3 B A2 F2 | z2 c2 f3 f | f2 e2 d2 c2 | %9
w: joys and|plea- sing|pains,|of joys and|plea- sing pains I|late went sing- ing,|of joys and|plea- sing pains I|
 A3 B A2 F2 | z2 G2 B3 c | d2 G2 z2 c2 | d3 c B4 | z4 z2 c2 | f3 f e2 e2 | d8 | d4!p! B4 | %17
w: late went sing- ing,|I late went|sing- ing, O|joys with pains!|O|pains with joys con-|sent-|ing! And|
 e2 e2 d3 e | f4 d4 | c6 B2 | A4 G4 | ^F4 G4- | G4 ^F4 | G8 | z4 A4- | A4 G4- | G2 G2 c4- | %27
w: lit- tle thought as|then of|now re-|pent- ing;|and lit\-|* tle|thought|as|* then|* of now|
 c4 B4- | B4 A4 | B4 B4 | e8 | d4 d4- | d4 c4 | d4 d4 | c4 e4 | d8 | d8 | z8 | z8 | z8 | z8 | z8 | %42
w: * re\-|* pent-|ing, But|now|think of|* my|then sweet|bit- ter|sting-|ing,||||||
 z8 | z8 |"^cresc." G6 G2 | B4 A2 B2 | c4 z2!p! B2 | A4 G4 | ^F4 G4 | d4 d4 | B4 c4- | c4 B4 | A8 | %53
w: ||All day|long I my|hands, a-|las! a-|las! go|wring- ing,|The bale\-|* ful|notes|
 z2!p! G2 c2 c2 | ^F4 G4 | A8 | B4 z4 | z8 | z8 | z4 d4- | d4 c4- | c4 B4 | c4 _A4 | G8 | c4 g4- | %65
w: of which, my|sad tor-|ment-|ing,|||Are|* ruth|* and|moan, frights,|sobs,|and loud|
 g4 f4 | g8 | d8 | z8 | z4"^cresc." G4- | G4 e4- | e4 d4 | c4 z4 | z8 | z4 c4 | g6 g2 | e4 c4 | %77
w: * la-|ment-|ing,||From|* hills|* and|dales,||from|hills and|dales, in|
 e4 d4 | c4!p! G4 | d8- | d8 | d8- | d16 |] %83
w: my dull|ears still|ring\-||ing.||
V:2
 z4 B4 | A3 A B2 G2 | ^F2 F2 G2 B2 | A4 G4 | z8 |[M:4/4] z2 c2 f3 f | f2 e2 d2 c2 | A3 B A2 F2 | %8
w: Of|joys and plea- sing|pains I late went|sing- ing,||of joys and|plea- sing pains I|late went sing- ing,|
 z2 c2 f3 f | f2 e2 d2 c2 | B3 c d2 G2 | z8 | z4 g4- | g4 f2 e2 | d2 d2 c2 B2 | A2 G2 A4 | G8 | %17
w: of joys and|plea- sing pains I|late went sing- ing,||O|* joys with|pains! O pains with|joys con- sent-|ing!|
 z2!p! c2 B3 c | d4 B4 | A4 F4 | c8- | c4 B4 | A4 A4 | z2 G2 B3 c | d6 d2 | c4 B4 | e8- | e4 d4 | %28
w: And lit- tle|thought as|then of|now|* re-|pent- ing!|and lit- tle|thought as|then of|now|* re-|
 c4 c4 | z4 d4 | c6 B2 | A8 | G8 | ^F4 G4 | A2 G2 (G4- | G4 ^F4) | G4 z4 |"^cresc." G6 G2 | %38
w: pent- ing,|But|now think|of|my|then sweet|bit- ter sting\-||ing,|All day|
 B4 A2 B2 | c4!p! B4 | A4 G4 | ^F4 G4 | z8 |"^cresc." d6 d2 | c4 B2 c2 | d8 | z2!p! c2 d3 d | %47
w: long I my|hands, a-|las! go|wring- ing,||all day|long I my|hands,|a- las! a-|
 c2 c2 B4 | A4 z4 | z8 | G4 A4- | A4 G4 | =F4!p! f4 | e4 e4 | d8- | d4 d4 | d4 d4 | d4 c4 | d8 | %59
w: las! go wring-|ing,||The bale\-|* ful|notes, the|bale- ful|notes,|* of|which, my|sad tor-|ment-|
 d6 G2 | G4 G4 | G4 G4 | G4 c4 | e8- | e4 d4 | c8 | =B8 | z8 | z8 |"^cresc." _B4 d4- | d2 c2 c4- | %71
w: ing, Are|ruth and|moan, frights,|sobs, and|loud|* la-|ment-|ing,|||From hills|* and dales|
 c4 =B4 | c4 c4 | d2 e2 d4 | c8 | z8 |"^cresc." c4 g2 g2 | g6 f2 | e2 d2!p! c4- | c4 (B4 | A8) | %81
w: * in|my dull|ears still ring-|ing,||From hills and|dales, my|dull ears still|* ring\-||
 =B8- | B16 |] %83
w: ing.||
V:3
 z4 G4 | ^F3 F G2 G2 | D2 D2 B,3 C | D2 D2 z2 B2 | A3 A A2 A2 |[M:4/4] A6 A2 | F3 G A2 A2 | %7
w: Of|joys and plea- sing|pains I late went|sing- ing, of|joys and plea- sing|pains I|late went sing- ing,|
 z4 z2 A2 | A2 A2 A2 A2 | z8 | z4 G4 | B3 c d2 G2 | z2 A2 G2 G2 | G4 A4 | B4 G4 | ^F2 G4 F2 | %16
w: I|late went sing- ing,||I|late went sing- ing,|O joys with|pains! O|pains with|joys con- sent-|
 G4 z4 | z2!p! G2 G2 B2 | A6 G2 | F4 F4 | F4 C4 | D8 | D4 z4 | z4 z2 D2 | D3 E F2 F2 | E8- | %26
w: ing!|And lit- tle|thought as|then of|now re-|pent-|ing!|and|lit- tle thought as|then|
 E4 E4 | F6 F2 | F8 | F6 D2 | G4 G4 | F8 | z8 | z2 D2 D2 D2 | E2 C2 c3 B | A2 G2 A4 | G8 | z8 | %38
w: * of|now re-|pent-|ing, But|now think|of,||but now think|of my then sweet|bit- ter sting-|ing,||
 z8 | z8 | z8 | z8 |"^cresc." D8- | D8 | E4 G4- | G4 ^F2 G2 | A4 z2!p! D2 | =F4 z2 D2- | %48
w: ||||All||day long|* I my|hands, a-|las! a\-|
 D2 D4 C2- | C2 B,2 A,4 | z8 | z8 | z8 | z8 | z2!p! D2 D2 D2 | D6 D2 | D4 B4 | A4 G4- | G4 ^F4 | %59
w: * las! go|* wring- ing,|||||The bale- ful|notes of|which, my|sad tor\-|* ment-|
 G8 | z8 | z8 | z8 | z8 | z8 | z8 | z4 G4 | _B6 A2 | G8 | G8 | z8 | z4"^cresc." D4 | E3 D C2 C2 | %73
w: ing,|||||||and|loud la-|ment-|ing,||From|hills and dales, in|
 G4 G4 | E6 F2 | G4 G4 | G2 G4 G2 | E2 C2 G4- | G4!p! G4 | ^F4 G4- | G4 ^F4 | G8- | G16 |] %83
w: my dull|ears still|ring- ing,|from hills and|dales, in my|* dull|ears, still|* ring-|ing.||
V:4
 z8 | z8 | z8 | z4 z2!f! D2 | F3 F F2 D2 |[M:4/4] C2 C2 A,3 B, | C2 C2 z4 | z4 C4 | F4 F4 | %9
w: |||Of|joys and plea- sing|pains I late went|sing- ing,|of|joys and|
w: |||||||||
 F3 G F3 E | D2 C2 B,2 G,2 | z2 D2 D2 E2 | F4 z2 B,2 | E2 G2 D2 E2 | F2 F,2 C4- | C2 B,2 A,4 | %16
w: plea- sing pains I|late went sing- ing,|O joys with|pains! O|joys with pains! O|pains with joys|* con- sent-|
w: |||||||
 =B,4 z2!p! D2 | E3 F G2 G2 | F2 F2 F,2 G,2 | A,8 | A,4 z4 | z8 | z4 D4 | G,2 B,2 B,2 B,2 | A,8 | %25
w: ing! And|lit- tle thought as|then of now re-|pent-|ing;||and|lit- tle thought as|then|
w: |||||||||
 z8 | G,8 | A,4 B,4 | C8 | D4 z4 | z4 C4 | F,4 F,4 | G,6 G,2 | A,4 B,4 | C6 G,2 | D4 D4 | D8 | %37
w: |of|now re-|pent-|ing,|But|now think|of my|then sweet|bit- ter|sting- ing,|All|
w: ||||||||||||
"^cresc." E4 G4- | G4 ^F2 G2 | A6!p! D2 | F4 z2 D2 | D4 C4 | A,2 B,2 A,4 | =B,4 z4 | z8 | %45
w: day long|* I my|hands, a-|las! a-|las! a-|las! go wring-|ing,||
w: ||||||||
 z2"^cresc." D4 D2 | F2 F4 G2 | A2!p! A,2 B,3 G, | A,4 G,4 | (^F,2 G,4) F,2 | z8 | z8 | z8 | %53
w: all day|long I my|hands, * * *||||||
w: ||* a- las! a-|las! go|wring\- * ing,||||
!p! B,4 C4- | C4 B,4 | A,6 A,2 | D4 D4 | D4 G,4 | D8 | D8 | z8 | z4 D4 | E8- | E4 D4 | C4 D4 | %65
w: The bale\-|* ful|notes of|which, my|sad tor-|ment-|ing,||Are|ruth|* and|moan, frights,|
w: ||||||||||||
 E4 C4 | G8- | G4 G,4 | C8 | G,4"^cresc." G,4 | E4 C4 | G,8 | z8 | =B,2 C4 B,2 | C6 C2 | %75
w: sobs, and|loud|* la-|ment-|ing, From|hills and|dales,||from hills and|dales, in|
w: ||||||||||
 D2 E2 D2 D2 | E2 E4 D2 | C4 G,4 | G,2!p! G,2 C2 C2 | A,4 G,4 | A,8 | G,8- | G,16 |] %83
w: my dull ears still|ring- ing, from|hills and|dales, in my dull|ears still|ring-|ing.||
w: ||||||||
V:5
 z8 | z8 | z4 z2!f! G2 | A3 A B2 G2 | A8- |[M:4/4][K:treble-8] A8 | z4 z2 c2 | f3 f f2 c2 | %8
w: ||Of|joys and plea- sing|pains,||of|joys and plea- sing|
 d2 c2 A3 B | c2 c2 z4 | B8- | B4 A2 G2 | F2 F2 G2 G2 | B2 c2 A2 c2 | d4 G4 | d8 | d6!p! B2 | %17
w: pains I late went|sing- ing,|O|* joys with|pains! O joys with|pains! O pains with|joys con-|sent-|ing! And|
 c2 c2 d4- | d4 f4 | c8 | z4 G4 | A2 A2 B3 c | d6 c2 | B2 G2 g4 | f2 d2 d2 A2 | c4 G4 | c4 c4- | %27
w: lit- tle thought|* as|then,|and|lit- tle thought as|then of|now re- pent-|ing! and lit- tle|thought as|then of|
 c4 d3 e | f4 F4 | z4 B4 | G8 | d8 | B4 G4 | d8 | z2 G4 c2- | c2 B2 A4 | =B8 | z8 | %38
w: * now re-|pent- ing,|But|now|think|of my|then|sweet bit\-|* ter sting-|ing,||
"^cresc." G4 d4 | A4 B2 B2 | F4 z2!p! G2 | D4 =E4 | (^F2 G4 F2) | G8 | z8 | z8 | z8 | z8 | z8 | %49
w: All day|long I my|hands, a-|las! go|wring\- * *|ing,||||||
!p! d8 | e4 c4 | d8- | d8 | G4 A4- | A4 G4 | ^F4 A4 | D6 =E2 | ^F4 G4 | A8 | =B8 | z4 e4 | d4 d4 | %62
w: The|bale- ful|notes,||the bale\-|* ful|notes of|which, my|sad tor-|ment-|ing,|Are|ruth and|
 c8 | z8 | z8 | c8 | e4 d4 | g6 f2 | e8- | e4 d4 | z8 | z4"^cresc." G4 | c4 _A4 | G6 G2 | _A4 c4 | %75
w: moan,|||frights,|sobs, and|loud la-|ment\-|* ing,||From|hills and|dales, in|my dull|
 =B2 c4 B2 | c4 c4 | c4 d4 | e4!p! e4 | d8- | d8 | d8- | d16 |] %83
w: ears still ring-|ing, in|my dull|ears still|ring\-||ing.||

